!!!SOCIAL_FUNCTION:	dream songs
!!!PDT:	1932
!!!OTL: No_47_Dream_Song_Concerning_the_Sun_(a).krn
!!!REG: Wisconsin
!!!LANG: Non-Tone
!!!LING_GROUP: Algonquin
**kern
*staff1
=1-
*clefF4
*k[]
*M2/4
4d\
4d\
=2
4c\
4c\
=3||
*M4/4
(4c\
8A\)
8r
4c\
4d\
=4
2.c\
4A\
=5
4G\
2G\
4r
=6||
*M2/4
4c\
4c\
=7
4G\
4G\
=8||
*M4/4
4G\
8E\
8r
4G\
4A\
=9
2.G\
4E\
=10
4C/
2C/
4r
=11||
*M2/4
4D\
4D\
=12
4C/
4C/
=13||
*M4/4
(4C/
8AA/)
8r
4C/
4D\
=14
2.C/
4AA/
=15
4GG/
2GG/
4r
==
*-
